X:1
T:Etude No.8 Op.60
T:Matteo Carcassi (1792 -1853)
%%score { ( 1 2 ) ( 3 4 ) }
L:1/8
Q:1/4=80
M:2/4
K:E
V:1 treble-8 nm="Classical Guitar"
V:2 treble-8 
V:3 tab stafflines=6 strings=E2,A2,D3,G3,B3,E4 nostems nm="Guitare classique [Tablature]"
V:4 tab stafflines=6 strings=E2,A2,D3,G3,B3,E4 nostems 
V:1
"^Moderato""_" !2!E/!1!G/(!3!c/!0!B/) E/G/(c/B/) | !3!F/!1!A/!0!e/!4!d/ F/A/e/d/ | %2
 G/B/(f/e/) G/B/(f/e/) |"_cresc.""^₵2" A/c/(!4!g/f/) A/c/(g/f/) | %4
"^₵2" !2!^A/c/(!4!g/f/) A/c/(g/f/) | !2!B/!3!d/(!4!g/!1!f/) B/d/(g/f/) | %6
"_""^V" !2!c/!1!e/(!4!b/!3!^a/) c/e/(b/a/) |"^VII" !2!d/!1!f/(!4!c'/!1!b/) !3!B z :: %8
"_""^₵4" !3!D/F/(!4!c/B/) D/F/(c/B/) | E/=G/(=d/=c/) E/G/(d/c/) |"_cresc." F/A/e/^d/ F/A/e/d/ | %11
 =G/B/(f/e/) G/B/(f/e/) | A/=c/(=g/f/) A/c/(g/f/) |"_" ^A/^c/(^g/f/) A/c/(g/f/) | %14
 !1!F/!1!B/(!4!e/!2!d/) !3!F/!2!^A/(!4!d/!1!c/) | B,/D/(c/B/) B, z |"_" E/G/(c/B/) E/G/(c/B/) | %17
 !1!D/!<(!!3!A/(!4!c/B/) !2!B,/A/!4!f/A/!<)! | D/A/(c/B/) D/A/(c/B/) | %19
!<(! E/G/(c/B/)!<)! E,/B/g/B/ |"_cresc." E/G/(f/e/) =D/G/(f/e/) | C/A/e/A/ =C/^A/e/A/ | %22
"_" B,/G/(c/B/) !1!B,/!2!A/(!4!d/!0!B/) |"_dim." E/G/(f/e/) E, z :| %24
V:2
 E2 E2 | F2 F2 | G2 G2 | A2 A2 | ^A2 A2 | B2 B2 | c2 c2 | d2 !3!B x :: D2 D2 | E2 E2 | F2 F2 | %11
 =G2 G2 | A2 A2 | ^A2 A2 | F2 F2 | B,2 B, x | E2 E2 | D2 B,2 | D2 D2 | E2 E,2 | E2 =D2 | C2 =C2 | %22
 B,2 B,2 | E2 E, x :| %24
V:3
 x/ !3!G,/ (!2!C/ !2!B,/) x/ !3!G,/ (!2!C/ !2!B,/) | x/ !3!A,/ !1!E/ !2!D/ x/ !3!A,/ !1!E/ !2!D/ | %2
 x/ !2!B,/ (!1!F/ !1!E/) x/ !2!B,/ (!1!F/ !1!E/) | x/ !2!C/ (!1!G/ !1!F/) x/ !2!C/ (!1!G/ !1!F/) | %4
 x/ !2!C/ (!1!G/ !1!F/) x/ !2!C/ (!1!G/ !1!F/) | x/ !2!D/ (!1!G/ !1!F/) x/ !2!D/ (!1!G/ !1!F/) | %6
 x/ !2!E/ (!1!B/ !1!^A/) x/ !2!E/ (!1!B/ !1!A/) | x/ !2!F/ (!1!c/ !1!B/) x x :: %8
 x/ !4!F,/ (!3!C/ !3!B,/) x/ !4!F,/ (!3!C/ !3!B,/) | %9
 x/ !3!=G,/ (!2!=D/ !2!=C/) x/ !3!G,/ (!2!D/ !2!C/) | %10
 !4!F,/ !3!A,/ !1!E/ !2!^D/ !4!F,/ !3!A,/ !1!E/ !2!D/ | %11
 x/ !2!B,/ (!1!F/ !1!E/) x/ !2!B,/ (!1!F/ !1!E/) | %12
 x/ !2!=C/ (!1!=G/ !1!F/) x/ !2!C/ (!1!G/ !1!F/) | %13
 x/ !2!^C/ (!1!^G/ !1!F/) x/ !2!C/ (!1!G/ !1!F/) | %14
 x/ !3!B,/ (!2!E/ !2!D/) x/ !3!^A,/ (!2!D/ !2!C/) | x/ !4!D,/ (!2!C/ !2!B,/) x x | %16
 x/ !3!G,/ (!2!C/ !2!B,/) x/ !3!G,/ (!2!C/ !2!B,/) | %17
 x/ !3!A,/ (!2!C/ !2!B,/) x/ !3!A,/ !1!F/ !3!A,/ | %18
 x/ !3!A,/ (!2!C/ !2!B,/) x/ !3!A,/ (!2!C/ !2!B,/) | %19
 x/ !3!G,/ (!2!C/ !2!B,/) x/ !2!B,/ !1!G/ !2!B,/ | %20
 x/ !3!G,/ (!1!F/ !1!E/) x/ !3!G,/ (!1!F/ !1!E/) | x/ !3!A,/ !1!E/ !3!A,/ x/ !3!^A,/ !1!E/ !3!A,/ | %22
 x/ !3!G,/ (!2!C/ !2!B,/) x/ !3!A,/ (!2!D/ !2!B,/) | x/ !3!G,/ (!1!F/ !1!E/) x x :| %24
V:4
 !4!E,2 !4!E,2 | !4!F,2 !4!F,2 | !3!G,2 !3!G,2 | !3!A,2 !3!A,2 | !3!^A,2 !3!A,2 | !3!B,2 !3!B,2 | %6
 !3!C2 !3!C2 | !3!D2 !4!B, x :: !5!D,2 !5!D,2 | !4!E,2 !4!E,2 | x2 x2 | !3!=G,2 !3!G,2 | %12
 !3!A,2 !3!A,2 | !3!^A,2 !3!A,2 | !4!F,2 !4!F,2 | !5!B,,2 !5!B,, x | !4!E,2 !4!E,2 | %17
 !4!D,2 !5!B,,2 | !4!D,2 !4!D,2 | !4!E,2 !6!E,,2 | !4!E,2 !4!=D,2 | !5!C,2 !5!=C,2 | %22
 !5!B,,2 !5!B,,2 | !4!E,2 !6!E,, x :| %24

